src/assets/active.svg

<?xml version="1.0" encoding="UTF-8" standalone="no"?>
<svg
   xmlns:dc="http://purl.org/dc/elements/1.1/"
   xmlns:cc="http://creativecommons.org/ns#"
   xmlns:rdf="http://www.w3.org/1999/02/22-rdf-syntax-ns#"
   xmlns:svg="http://www.w3.org/2000/svg"
   xmlns="http://www.w3.org/2000/svg"
   xmlns:sodipodi="http://sodipodi.sourceforge.net/DTD/sodipodi-0.dtd"
   xmlns:inkscape="http://www.inkscape.org/namespaces/inkscape"
   height="100%"
   viewBox="0 0 28 24"
   width="100%"
   id="svg2"
   version="1.1"
   inkscape:version="0.91 r"
   sodipodi:docname="active.svg"
   style="fill:#000000">
  <metadata
     id="metadata12">
    <rdf:RDF>
      <cc:Work
         rdf:about="">
        <dc:format>image/svg+xml</dc:format>
        <dc:type
           rdf:resource="http://purl.org/dc/dcmitype/StillImage" />
      </cc:Work>
    </rdf:RDF>
  </metadata>
  <defs
     id="defs10" />
  <sodipodi:namedview
     pagecolor="#ffffff"
     bordercolor="#666666"
     borderopacity="1"
     objecttolerance="10"
     gridtolerance="10"
     guidetolerance="10"
     inkscape:pageopacity="0"
     inkscape:pageshadow="2"
     inkscape:window-width="1254"
     inkscape:window-height="858"
     id="namedview8"
     showgrid="false"
     inkscape:zoom="15.298554"
     inkscape:cx="15.673224"
     inkscape:cy="4.3586967"
     inkscape:window-x="65"
     inkscape:window-y="24"
     inkscape:window-maximized="0"
     inkscape:current-layer="svg2" />
  <path
     d="M 0,0 24,0 24,24 0,24 Z"
     id="path4"
     inkscape:connector-curvature="0"
     style="fill:none" />
  <path
     style="opacity:1;fill:#000000;fill-opacity:1;stroke:none;stroke-width:3.4000001;stroke-linecap:round;stroke-linejoin:round;stroke-miterlimit:4;stroke-dasharray:none;stroke-opacity:0.79245282"
     d="M 10.699219 3 C 6.4334189 3 3 6.51225 3 10.875 L 3 13.125 C 3 17.48775 6.4334189 21 10.699219 21 L 17.300781 21 C 21.566581 21 25 17.48775 25 13.125 L 25 10.875 C 25 6.51225 21.566581 3 17.300781 3 L 10.699219 3 z M 18.880859 5.3945312 A 1.60016 1.60016 0 0 1 20.28125 7.8789062 L 20.097656 8.15625 A 1.60016 1.60016 0 0 1 19.5625 8.6660156 A 1.60016 1.60016 0 0 1 19.558594 8.6699219 L 10.771484 17.892578 A 1.60016 1.60016 0 0 1 8.0429688 17.09375 L 6.9589844 11.501953 A 1.60016 1.60016 0 1 1 10.099609 10.894531 L 10.59375 13.441406 L 17.792969 5.8867188 A 1.60016 1.60016 0 0 1 18.880859 5.3945312 z "
     id="rect4182" />
</svg>

<svg version="1.1" viewBox="0 0 28 24" xmlns="http://www.w3.org/2000/svg">
 <path d="m0 0h24v24h-24z" fill="none"/>
 <path d="m10.699 3c-4.2658 0-7.6992 3.5122-7.6992 7.875v2.25c0 4.3628 3.4334 7.875 7.6992 7.875h6.6016c4.2658 0 7.6992-3.5122 7.6992-7.875v-2.25c0-4.3628-3.4334-7.875-7.6992-7.875h-6.6016zm8.1816 2.3945a1.6002 1.6002 0 0 1 1.4004 2.4844l-0.18359 0.27734a1.6002 1.6002 0 0 1-0.53516 0.50977 1.6002 1.6002 0 0 1-0.003906 0.0039063l-8.7871 9.2227a1.6002 1.6002 0 0 1-2.7285-0.79883l-1.084-5.5918a1.6002 1.6002 0 1 1 3.1406-0.60742l0.49414 2.5469 7.1992-7.5547a1.6002 1.6002 0 0 1 1.0879-0.49219z"/>
</svg>
